!!!OTL: ES GIENG EIN WOLGEZOGNER KNECHT
!!!ARE: Europa, Mitteleuropa, Deutschland
!!!SCT: E1540
!!!YEM: Copyright 1995, estate of Helmut Schaffrath.
**kern
*ICvox
*Ivox
*M6/4
*k[]
*a:
{4a
=1
2a
4a
2a
4b
=2
2ccn
4ccn
2ccn}
{4ccn
=3
4a
4a
4a
2ccn
4ccn
=4
2.a
2gn}
{4a
=5
2a
4a
2a
4b
=6
2ccn
4ccn
2ccn}
{4ccn
=7
4a
4a
4a
2ccn
4ccn
=8
2.a
2gn}
{4gn
=9
2ccn
4dd
2ee
4ee
=10
2ee
4ee
2ee}
{4ee
=11
2ee
4ee
2ee
4ee
=12
2.b
2dd}
{4dd
=13
2ccn
4a
2b
4a
=14
2a
4g#
2a}
{4gn
=15
2ccn
4dd
2ee
4ee
=16
2ee
4ee
2ee}
{4ee
=17
2ee
4ee
2ee
4ee
=18
2.b
2dd}
{4dd
=19
2ccn
4a
2b
4a
=20
2a
4g#
2a}
==
!!!AGN: Staende -, Bauern - Lied
!!!ONB: ESAC (Essen Associative Code) Database: ERK3
!!!AMT: compound duple
!!!AIN: vox
!!!EED: Helmut Schaffrath
!!!EEV: 1.0
*-
